Lila_HD/apps/scalable/qtpass.svg

<?xml version="1.0" encoding="UTF-8" standalone="no"?>
<svg
   xmlns:dc="http://purl.org/dc/elements/1.1/"
   xmlns:cc="http://creativecommons.org/ns#"
   xmlns:rdf="http://www.w3.org/1999/02/22-rdf-syntax-ns#"
   xmlns:svg="http://www.w3.org/2000/svg"
   xmlns="http://www.w3.org/2000/svg"
   xmlns:xlink="http://www.w3.org/1999/xlink"
   xmlns:sodipodi="http://sodipodi.sourceforge.net/DTD/sodipodi-0.dtd"
   xmlns:inkscape="http://www.inkscape.org/namespaces/inkscape"
   viewBox="0 0 48 48"
   version="1.1"
   id="svg40"
   sodipodi:docname="qtpass.svg"
   inkscape:version="0.92.2 2405546, 2018-03-11">
  <metadata
     id="metadata44">
    <rdf:RDF>
      <cc:Work
         rdf:about="">
        <dc:format>image/svg+xml</dc:format>
        <dc:type
           rdf:resource="http://purl.org/dc/dcmitype/StillImage" />
      </cc:Work>
    </rdf:RDF>
  </metadata>
  <sodipodi:namedview
     pagecolor="#ffffff"
     bordercolor="#666666"
     borderopacity="1"
     objecttolerance="10"
     gridtolerance="10"
     guidetolerance="10"
     inkscape:pageopacity="0"
     inkscape:pageshadow="2"
     inkscape:window-width="1920"
     inkscape:window-height="1025"
     id="namedview42"
     showgrid="false"
     inkscape:zoom="4.9166667"
     inkscape:cx="24"
     inkscape:cy="22.372881"
     inkscape:window-x="0"
     inkscape:window-y="25"
     inkscape:window-maximized="1"
     inkscape:current-layer="svg40" />
  <defs
     id="defs12">
    <linearGradient
       id="linearGradient3764"
       x1="1"
       x2="47"
       gradientUnits="userSpaceOnUse"
       gradientTransform="rotate(-90,23.999998,24)">
      <stop
         style="stop-color:#e4e4e4;stop-opacity:1"
         id="stop2" />
      <stop
         offset="1"
         style="stop-color:#eee;stop-opacity:1"
         id="stop4" />
    </linearGradient>
    <radialGradient
       id="radialGradient4175"
       cx="13"
       cy="17.25"
       r="10"
       gradientTransform="matrix(1,0,0,0.875,0,2.15625)"
       gradientUnits="userSpaceOnUse">
      <stop
         style="stop-color:#1a5a9a;stop-opacity:1"
         id="stop7" />
      <stop
         offset="1"
         style="stop-color:#134271;stop-opacity:1"
         id="stop9" />
    </radialGradient>
    <linearGradient
       inkscape:collect="always"
       xlink:href="#linearGradient6139-0"
       id="linearGradient4071"
       gradientUnits="userSpaceOnUse"
       gradientTransform="matrix(0.5500995,0,0,0.55067302,-2.4296481,-1.8816247)"
       x1="6"
       y1="47.000011"
       x2="90"
       y2="47.000011" />
    <linearGradient
       id="linearGradient6139-0">
      <stop
         id="stop6141-2"
         offset="0"
         style="stop-color:#b2babc;stop-opacity:1" />
      <stop
         style="stop-color:#ffffff;stop-opacity:1;"
         offset="0.25"
         id="stop6151-0" />
      <stop
         style="stop-color:#96a1a4;stop-opacity:1"
         offset="0.5"
         id="stop6147-1" />
      <stop
         id="stop6149-4"
         offset="0.75"
         style="stop-color:#fbf9f9;stop-opacity:1;" />
      <stop
         id="stop6143-4"
         offset="1"
         style="stop-color:#b2b9bc;stop-opacity:1" />
    </linearGradient>
    <linearGradient
       gradientTransform="matrix(0.49686411,0,0,0.49738219,0.12565245,0.12566702)"
       inkscape:collect="always"
       xlink:href="#linearGradient3832-0-6-1-1"
       id="linearGradient4129"
       x1="1.5"
       y1="88.171875"
       x2="94.5"
       y2="88.171875"
       gradientUnits="userSpaceOnUse" />
    <linearGradient
       id="linearGradient3832-0-6-1-1">
      <stop
         style="stop-color:#000000;stop-opacity:1;"
         offset="0"
         id="stop3834-6-3-7-1" />
      <stop
         id="stop3872-2-4"
         offset="0.1"
         style="stop-color:#000000;stop-opacity:0.58823532;" />
      <stop
         style="stop-color:#000000;stop-opacity:0.58823532;"
         offset="0.89999998"
         id="stop3844-6-2-7-6" />
      <stop
         style="stop-color:#000000;stop-opacity:1;"
         offset="1"
         id="stop3836-5-0-2-9" />
    </linearGradient>
    <radialGradient
       inkscape:collect="always"
       xlink:href="#linearGradient3737"
       id="radialGradient7462"
       gradientUnits="userSpaceOnUse"
       gradientTransform="matrix(0.48450896,0,0,0.02446659,16.968697,39.999155)"
       cx="13.948145"
       cy="44.892841"
       fx="13.948145"
       fy="44.892841"
       r="43.199203" />
    <linearGradient
       id="linearGradient3737">
      <stop
         offset="0"
         style="stop-color:#ffffff;stop-opacity:1"
         id="stop3739" />
      <stop
         offset="1"
         style="stop-color:#ffffff;stop-opacity:0"
         id="stop3741" />
    </linearGradient>
    <radialGradient
       inkscape:collect="always"
       xlink:href="#linearGradient3737"
       id="radialGradient7464"
       gradientUnits="userSpaceOnUse"
       gradientTransform="matrix(0.44183785,0,0,0.0244411,15.815336,-44.927046)"
       cx="13.948145"
       cy="44.892841"
       fx="13.948145"
       fy="44.892841"
       r="43.199203" />
    <linearGradient
       gradientTransform="matrix(1.0041884,0,0,1.0052356,-0.21820995,-0.04755458)"
       inkscape:collect="always"
       xlink:href="#linearGradient3737"
       id="linearGradient4767"
       gradientUnits="userSpaceOnUse"
       x1="2.7713892"
       y1="-28.64156"
       x2="50.527882"
       y2="14.514202" />
    <clipPath
       id="clipPath4156-4-1"
       clipPathUnits="userSpaceOnUse">
      <path
         inkscape:connector-curvature="0"
         id="path4158-0-8"
         d="m 27.046336,-55.695463 -14.21366,13.321486 h 0.06127 l 15.653407,21.770763 10.231384,-10.546177 C 38.561832,-32.30156 27.468089,-54.819245 27.046336,-55.695463 Z M 9.6468554,-39.382809 -5.2407289,-25.32124 15.987863,-7.8059573 26.372412,-18.382966 Z m 31.4906096,12.951445 -9.741259,9.713584 8.944804,12.4580526 7.780753,-7.5550056 z m -49.8397109,4.378822 -13.7541661,12.9822847 26.2830181,13.84571 0.06127,-0.0617 -0.122531,-0.0617 L 13.598503,-5.4007374 -8.7022409,-22.052595 Z m 38.0154159,7.400825 -9.802525,9.7752596 11.579232,9.5594001 7.62759,-7.40083 -8.669108,-11.0087257 z m 20.187073,5.6739697 -7.382526,7.2158 6.187844,8.54179 5.820249,-6.13651996 z m -32.195166,6.32154 -9.5574606,9.49772 13.6622686,7.1849703 7.933918,-7.6783603 z m 23.311629,2.37443004 -7.10683,6.93826996 8.362778,6.9074403 5.360756,-5.6739699 -0.06127,-0.0925 -0.0919,0.12335 -6.463539,-8.20258036 z m -8.730374,8.54178036 -7.505057,7.3391599 10.353916,5.45811 c 1.397496,-1.32103 5.67514,-6.12292 5.850882,-6.32154 z"
         style="opacity:0.6;fill:#ffffff;fill-opacity:1;stroke:none" />
    </clipPath>
    <linearGradient
       id="ButtonShadow-16"
       gradientTransform="scale(1.0058652,0.994169)"
       x1="45.447727"
       y1="92.539597"
       x2="45.447727"
       y2="7.0165396"
       gradientUnits="userSpaceOnUse">
      <stop
         style="stop-color:#000000;stop-opacity:1;"
         offset="0"
         id="stop3750-6" />
      <stop
         style="stop-color:#000000;stop-opacity:0.58823532;"
         offset="1"
         id="stop3752-4" />
    </linearGradient>
    <clipPath
       clipPathUnits="userSpaceOnUse"
       id="clipPath4355-7">
      <rect
         style="fill:#ffffff;fill-opacity:1;fill-rule:nonzero;stroke:none"
         id="rect4357-5"
         width="84"
         height="80"
         x="6"
         y="6"
         rx="6"
         ry="6" />
    </clipPath>
    <clipPath
       clipPathUnits="userSpaceOnUse"
       id="clipPath4355-9">
      <rect
         style="fill:#ffffff;fill-opacity:1;fill-rule:nonzero;stroke:none"
         id="rect4357-1"
         width="84"
         height="80"
         x="6"
         y="6"
         rx="6"
         ry="6" />
    </clipPath>
    <clipPath
       clipPathUnits="userSpaceOnUse"
       id="clipPath4355-1">
      <rect
         style="fill:#ffffff;fill-opacity:1;fill-rule:nonzero;stroke:none"
         id="rect4357-9"
         width="84"
         height="80"
         x="6"
         y="6"
         rx="6"
         ry="6" />
    </clipPath>
    <clipPath
       clipPathUnits="userSpaceOnUse"
       id="clipPath3943-52-0">
      <path
         id="path3945-4-1"
         d="m 69.78125,20.84375 -5,3.4375 c 5.586891,5.537137 9,13.327613 9,21.8125 0,8.434478 -3.37723,16.095981 -8.90625,21.625 l 5,3.4375 C 76.078226,64.5762 80,55.843726 80,46.09375 c 2e-6,-9.796556 -3.962955,-18.660417 -10.21875,-25.25 z M 40,24.0625 28.90625,36.21875 H 21.5 c -0.823281,0 -1.5,0.676717 -1.5,1.5 v 1 14.84375 1 c 0,0.823281 0.684121,1.610161 1.5,1.5 h 7.40625 L 40,68 V 66 26.0625 Z m 20.59375,3.28125 -5,3.4375 L 55.5,30.875 c 3.93815,3.890071 6.40625,9.25018 6.40625,15.21875 0,5.920869 -2.42961,11.148358 -6.3125,15.03125 l 0.09375,0.09375 5.09375,3.4375 c 4.475428,-4.908367 7.25,-11.402005 7.25,-18.5625 0,-7.230696 -2.87904,-13.83107 -7.4375,-18.75 z m -9.25,6.5 -5.21875,3.625 c 2.222384,2.217802 3.71875,5.239596 3.71875,8.625 0,3.336509 -1.458847,6.227712 -3.625,8.4375 l 5.21875,3.625 c 2.822412,-3.236947 4.53125,-7.43414 4.53125,-12.0625 0,-4.672601 -1.754155,-9.001351 -4.625,-12.25 z"
         style="color:#000000;display:inline;overflow:visible;visibility:visible;opacity:0.8;fill:#ff00ff;fill-opacity:1;fill-rule:nonzero;stroke:none;stroke-width:1;marker:none;enable-background:accumulate"
         inkscape:connector-curvature="0" />
    </clipPath>
    <radialGradient
       id="radialGradient4175-3"
       cx="13"
       cy="17.25"
       r="10"
       gradientTransform="matrix(1,0,0,0.875,0,2.15625)"
       gradientUnits="userSpaceOnUse">
      <stop
         style="stop-color:#1a5a9a;stop-opacity:1"
         id="stop7-6" />
      <stop
         offset="1"
         style="stop-color:#134271;stop-opacity:1"
         id="stop9-7" />
    </radialGradient>
  </defs>
  <path
     style="display:inline;opacity:0.15;fill:#000000;fill-opacity:1;fill-rule:nonzero;stroke:none;stroke-width:0.49712294"
     d="M 44.357141,0.24999964 H 3.6428533 c -1.8796383,0 -3.39285336,1.51321396 -3.39285336,3.39285576 V 44.357143 c 0,1.879643 1.51321506,3.392857 3.39285336,3.392857 H 44.357141 C 46.236784,47.75 47.75,46.236786 47.75,44.357143 V 3.6428554 c 0,-1.8796418 -1.513216,-3.39285576 -3.392859,-3.39285576 z"
     id="path3288"
     inkscape:connector-curvature="0" />
  <path
     inkscape:connector-curvature="0"
     id="path4085"
     d="M 44.039062,0.62109332 H 3.9609331 c -1.8502695,0 -3.33984031,1.48956988 -3.33984031,3.33984228 V 44.039062 c 0,1.850274 1.48957081,3.339844 3.33984031,3.339844 H 44.039062 c 1.850273,0 3.339844,-1.48957 3.339844,-3.339844 V 3.9609356 c 0,-1.8502724 -1.489571,-3.33984228 -3.339844,-3.33984228 z"
     style="display:inline;opacity:0.15;fill:#000000;fill-opacity:1;fill-rule:nonzero;stroke:none;stroke-width:0.49712294" />
  <path
     style="display:inline;fill:url(#linearGradient4071);fill-opacity:1;fill-rule:nonzero;stroke:none;stroke-width:0.49712294"
     d="M 43.720978,0.99218715 H 4.2790169 c -1.8209042,0 -3.28683014,1.46592565 -3.28683014,3.28682925 V 43.720983 c 0,1.820903 1.46592594,3.28683 3.28683014,3.28683 H 43.720978 c 1.820906,0 3.28683,-1.465927 3.28683,-3.28683 V 4.2790164 c 0,-1.8209036 -1.465924,-3.28682925 -3.28683,-3.28682925 z"
     id="rect4251-1"
     inkscape:connector-curvature="0" />
  <rect
     ry="1.4911714"
     rx="1.1772746"
     y="3.3682313"
     x="3.0805154"
     height="38.309101"
     width="42.057644"
     id="rect862"
     style="opacity:1;fill:#e2e6ea;fill-opacity:0.97169812;stroke:none;stroke-width:0.35375404;stroke-miterlimit:4;stroke-dasharray:none;stroke-opacity:1" />
  <path
     inkscape:connector-curvature="0"
     id="path4989"
     d="m 5.1113668,2.5900975 c -1.5420782,0 -2.8044619,1.2565284 -2.8044619,2.7935952 V 39.661868 c 0,1.537068 1.2623837,2.793597 2.8044619,2.793597 H 43.107301 c 1.54208,0 2.804464,-1.256529 2.804464,-2.793597 V 5.3836927 c 0,-1.5370663 -1.262384,-2.7935952 -2.804464,-2.7935952 z m 0,1.1476391 H 43.107301 c 0.934216,0 1.658554,0.7323386 1.658554,1.6459561 V 39.661868 c 0,0.91362 -0.724338,1.645957 -1.658554,1.645957 H 5.1113668 c -0.9342158,0 -1.6585527,-0.732337 -1.6585527,-1.645957 V 5.3836927 c 0,-0.9136175 0.7243369,-1.6459561 1.6585527,-1.6459561 z"
     style="color:#000000;font-style:normal;font-variant:normal;font-weight:normal;font-stretch:normal;font-size:medium;line-height:normal;font-family:Sans;-inkscape-font-specification:Sans;text-indent:0;text-align:start;text-decoration:none;text-decoration-line:none;letter-spacing:normal;word-spacing:normal;text-transform:none;writing-mode:lr-tb;direction:ltr;baseline-shift:baseline;text-anchor:start;display:inline;overflow:visible;visibility:visible;fill:#202223;fill-opacity:0.93689324;stroke:none;stroke-width:1.18091595;marker:none;enable-background:accumulate" />
  <path
     inkscape:connector-curvature="0"
     style="display:inline;opacity:0.65818182;fill:url(#linearGradient4129);fill-opacity:1;fill-rule:nonzero;stroke:none;stroke-width:0.49712294"
     d="m 0.99218627,40.745605 v 2.96875 c 0,1.820904 1.47255273,3.293457 3.29345673,3.293457 h 39.42871 c 1.820906,0 3.29346,-1.472553 3.29346,-3.293457 v -2.96875 c 0,1.820904 -1.472554,3.293457 -3.29346,3.293457 H 4.285643 c -1.820904,0 -3.29345673,-1.472553 -3.29345673,-3.293457 z"
     id="path4118" />
  <rect
     style="opacity:0.55;fill:url(#radialGradient7462);fill-opacity:1;stroke:none;stroke-width:0.49712294"
     id="rect4131"
     width="41.686203"
     height="2.102865"
     x="2.9095042"
     y="39.957027"
     rx="2.1138744"
     ry="2.1138744" />
  <rect
     ry="2.1116724"
     rx="2.1116724"
     y="-44.823299"
     x="3.0010393"
     height="2.102865"
     width="37.975258"
     id="rect4141"
     style="opacity:0.669;fill:url(#radialGradient7464);fill-opacity:1;stroke:none;stroke-width:0.49712294"
     transform="rotate(90)" />
  <g
     transform="matrix(1.3088512,0,0,1.3088512,6.3305088,6.3305088)"
     id="g38">
    <path
       d="M 14,1 A 7,7 0 0 0 7,8 v 2.025 C 5.232,10.87 4,12.66 4,14.75 4,17 5,18 6,19 l 8,8 8,-8 c 1,-1 2,-2 2,-4.25 0,-2.09 -1.232,-3.88 -3,-4.725 V 8 A 7,7 0 0 0 14,1 m 0,3 a 4,4 0 0 1 4,4 V 9.555 C 16.268,9.806 14.755,10.912 14,12.527 13.245,10.912 11.732,9.806 10,9.555 V 8 a 4,4 0 0 1 4,-4 z"
       style="opacity:0.1;fill:#000000;fill-opacity:1;stroke:none"
       id="path30"
       inkscape:connector-curvature="0" />
    <path
       d="M 13,0 A 7,7 0 0 0 6,7 v 4 H 9 V 7 a 4,4 0 0 1 4,-4 4,4 0 0 1 4,4 v 4 h 3 V 7 A 7,7 0 0 0 13,0"
       style="opacity:1;fill:#929292;fill-opacity:1;stroke:none"
       id="path32"
       inkscape:connector-curvature="0" />
    <path
       d="M 8.25,8.5 C 5.351,8.5 3,10.851 3,13.75 3,16 4,17 5,18 l 8,8 8,-8 c 1,-1 2,-2 2,-4.25 C 23,10.851 20.649,8.5 17.75,8.5 15.714,8.502 13.862,9.682 13,11.53 12.138,9.685 10.286,8.51 8.25,8.5"
       style="opacity:1;fill:url(#radialGradient4175-3);fill-opacity:1;stroke:none"
       id="path34"
       inkscape:connector-curvature="0" />
    <path
       d="m 13,13 a 2,2 0 0 0 -2,2 2,2 0 0 0 1.188,1.826 L 11.199,21 h 3.602 L 13.813,16.824 A 2,2 0 0 0 15,15 2,2 0 0 0 13,13"
       style="opacity:1;fill:#1a1a1a;fill-opacity:0.78399999;stroke:none"
       id="path36"
       inkscape:connector-curvature="0" />
  </g>
  <rect
     transform="matrix(0.52905357,0,0,0.51838486,2.3752412,19.289082)"
     style="opacity:0.65;fill:url(#linearGradient4767);fill-opacity:1;stroke:none;stroke-width:1.00471163"
     id="rect4146"
     width="75.965775"
     height="69.024437"
     x="2"
     y="-30"
     rx="3.973561"
     ry="3.9777055"
     clip-path="url(#clipPath4156-4-1)" />
</svg>

<?xml version="1.0" encoding="UTF-8"?>
<svg version="1.1" viewBox="0 0 48 48" xmlns="http://www.w3.org/2000/svg" xmlns:cc="http://creativecommons.org/ns#" xmlns:dc="http://purl.org/dc/elements/1.1/" xmlns:rdf="http://www.w3.org/1999/02/22-rdf-syntax-ns#" xmlns:xlink="http://www.w3.org/1999/xlink">
<metadata>
<rdf:RDF>
<cc:Work rdf:about="">
<dc:format>image/svg+xml</dc:format>
<dc:type rdf:resource="http://purl.org/dc/dcmitype/StillImage"/>
</cc:Work>
</rdf:RDF>
</metadata>
<defs>
<linearGradient id="linearGradient4071" x1="6" x2="90" y1="47" y2="47" gradientTransform="matrix(.5501 0 0 .55067 -2.4296 -1.8816)" gradientUnits="userSpaceOnUse">
<stop stop-color="#b2babc" offset="0"/>
<stop stop-color="#fff" offset=".25"/>
<stop stop-color="#96a1a4" offset=".5"/>
<stop stop-color="#fbf9f9" offset=".75"/>
<stop stop-color="#b2b9bc" offset="1"/>
</linearGradient>
<linearGradient id="linearGradient4129" x1="1.5" x2="94.5" y1="88.172" y2="88.172" gradientTransform="matrix(.49686 0 0 .49738 .12565 .12567)" gradientUnits="userSpaceOnUse">
<stop offset="0"/>
<stop stop-opacity=".58824" offset=".1"/>
<stop stop-opacity=".58824" offset=".9"/>
<stop offset="1"/>
</linearGradient>
<radialGradient id="radialGradient7462" cx="13.948" cy="44.893" r="43.199" gradientTransform="matrix(.48451 0 0 .024467 16.969 39.999)" gradientUnits="userSpaceOnUse" xlink:href="#linearGradient3737"/>
<linearGradient id="linearGradient3737">
<stop stop-color="#fff" offset="0"/>
<stop stop-color="#fff" stop-opacity="0" offset="1"/>
</linearGradient>
<radialGradient id="radialGradient7464" cx="13.948" cy="44.893" r="43.199" gradientTransform="matrix(.44184 0 0 .024441 15.815 -44.927)" gradientUnits="userSpaceOnUse" xlink:href="#linearGradient3737"/>
<linearGradient id="linearGradient4767" x1="2.7714" x2="50.528" y1="-28.642" y2="14.514" gradientTransform="matrix(1.0042 0 0 1.0052 -.21821 -.047555)" gradientUnits="userSpaceOnUse" xlink:href="#linearGradient3737"/>
<clipPath id="clipPath4156-4-1">
<path d="m27.046-55.695-14.214 13.321h0.06127l15.653 21.771 10.231-10.546c-0.2169-1.1522-11.311-23.67-11.732-24.546zm-17.399 16.313-14.888 14.062 21.229 17.515 10.385-10.577zm31.491 12.951-9.7413 9.7136 8.9448 12.458 7.7808-7.555zm-49.84 4.3788-13.754 12.982 26.283 13.846 0.06127-0.0617-0.12253-0.0617 9.8332-10.053-22.301-16.652zm38.015 7.4008-9.8025 9.7753 11.579 9.5594 7.6276-7.4008-8.6691-11.009zm20.187 5.674-7.3825 7.2158 6.1878 8.5418 5.8202-6.1365zm-32.195 6.3215-9.5575 9.4977 13.662 7.185 7.9339-7.6784zm23.312 2.3744-7.1068 6.9383 8.3628 6.9074 5.3608-5.674-0.06127-0.0925-0.0919 0.12335-6.4635-8.2026zm-8.7304 8.5418-7.5051 7.3392 10.354 5.4581c1.3975-1.321 5.6751-6.1229 5.8509-6.3215z" fill="#fff" opacity=".6"/>
</clipPath>
<radialGradient id="radialGradient4175-3" cx="13" cy="17.25" r="10" gradientTransform="matrix(1 0 0 .875 0 2.1562)" gradientUnits="userSpaceOnUse">
<stop stop-color="#1a5a9a" offset="0"/>
<stop stop-color="#134271" offset="1"/>
</radialGradient>
</defs>
<path d="m44.357 0.25h-40.714c-1.8796 0-3.3929 1.5132-3.3929 3.3929v40.714c0 1.8796 1.5132 3.3929 3.3929 3.3929h40.714c1.8796 0 3.3929-1.5132 3.3929-3.3929v-40.714c0-1.8796-1.5132-3.3929-3.3929-3.3929z" opacity=".15"/>
<path d="m44.039 0.62109h-40.078c-1.8503 0-3.3398 1.4896-3.3398 3.3398v40.078c0 1.8503 1.4896 3.3398 3.3398 3.3398h40.078c1.8503 0 3.3398-1.4896 3.3398-3.3398v-40.078c0-1.8503-1.4896-3.3398-3.3398-3.3398z" opacity=".15"/>
<path d="m43.721 0.99219h-39.442c-1.8209 0-3.2868 1.4659-3.2868 3.2868v39.442c0 1.8209 1.4659 3.2868 3.2868 3.2868h39.442c1.8209 0 3.2868-1.4659 3.2868-3.2868v-39.442c0-1.8209-1.4659-3.2868-3.2868-3.2868z" fill="url(#linearGradient4071)"/>
<rect x="3.0805" y="3.3682" width="42.058" height="38.309" rx="1.1773" ry="1.4912" fill="#e2e6ea" fill-opacity=".9717"/>
<path d="m5.1114 2.5901c-1.5421 0-2.8045 1.2565-2.8045 2.7936v34.278c0 1.5371 1.2624 2.7936 2.8045 2.7936h37.996c1.5421 0 2.8045-1.2565 2.8045-2.7936v-34.278c0-1.5371-1.2624-2.7936-2.8045-2.7936zm0 1.1476h37.996c0.93422 0 1.6586 0.73234 1.6586 1.646v34.278c0 0.91362-0.72434 1.646-1.6586 1.646h-37.996c-0.93422 0-1.6586-0.73234-1.6586-1.646v-34.278c0-0.91362 0.72434-1.646 1.6586-1.646z" color="#000000" fill="#202223" fill-opacity=".93689" style="text-decoration-line:none;text-indent:0;text-transform:none"/>
<path d="m0.99219 40.746v2.9688c0 1.8209 1.4726 3.2935 3.2935 3.2935h39.429c1.8209 0 3.2935-1.4726 3.2935-3.2935v-2.9688c0 1.8209-1.4726 3.2935-3.2935 3.2935h-39.429c-1.8209 0-3.2935-1.4726-3.2935-3.2935z" fill="url(#linearGradient4129)" opacity=".65818"/>
<rect x="2.9095" y="39.957" width="41.686" height="2.1029" rx="2.1139" ry="2.1139" fill="url(#radialGradient7462)" opacity=".55"/>
<rect transform="rotate(90)" x="3.001" y="-44.823" width="37.975" height="2.1029" rx="2.1117" ry="2.1117" fill="url(#radialGradient7464)" opacity=".669"/>
<g transform="matrix(1.3089 0 0 1.3089 6.3305 6.3305)">
<path d="m14 1a7 7 0 0 0-7 7v2.025c-1.768 0.845-3 2.635-3 4.725 0 2.25 1 3.25 2 4.25l8 8 8-8c1-1 2-2 2-4.25 0-2.09-1.232-3.88-3-4.725v-2.025a7 7 0 0 0-7-7m0 3a4 4 0 0 1 4 4v1.555c-1.732 0.251-3.245 1.357-4 2.972-0.755-1.615-2.268-2.721-4-2.972v-1.555a4 4 0 0 1 4-4z" opacity=".1"/>
<path d="m13 0a7 7 0 0 0-7 7v4h3v-4a4 4 0 0 1 4-4 4 4 0 0 1 4 4v4h3v-4a7 7 0 0 0-7-7" fill="#929292"/>
<path d="m8.25 8.5c-2.899 0-5.25 2.351-5.25 5.25 0 2.25 1 3.25 2 4.25l8 8 8-8c1-1 2-2 2-4.25 0-2.899-2.351-5.25-5.25-5.25-2.036 2e-3 -3.888 1.182-4.75 3.03-0.862-1.845-2.714-3.02-4.75-3.03" fill="url(#radialGradient4175-3)"/>
<path d="m13 13a2 2 0 0 0-2 2 2 2 0 0 0 1.188 1.826l-0.989 4.174h3.602l-0.988-4.176a2 2 0 0 0 1.187-1.824 2 2 0 0 0-2-2" fill="#1a1a1a" fill-opacity=".784"/>
</g>
<rect transform="matrix(.52905 0 0 .51838 2.3752 19.289)" x="2" y="-30" width="75.966" height="69.024" rx="3.9736" ry="3.9777" clip-path="url(#clipPath4156-4-1)" fill="url(#linearGradient4767)" opacity=".65"/>
</svg>
